assets/mail.svg

<svg fill="none" height="30" viewBox="0 0 30 30" width="30" xmlns="http://www.w3.org/2000/svg" xmlns:xlink="http://www.w3.org/1999/xlink"><clipPath id="a"><path d="m.000244 0h30v30h-30z"/></clipPath><g clip-path="url(#a)" fill="#fff"><path d="m24.2899 20.808c-.119 0-.238-.0436-.3308-.1316l-5.5663-5.2218c-.1944-.1819-.2041-.4886-.0212-.683.1828-.1964.4875-.2051.6839-.0213l5.5662 5.2219c.1944.1818.2041.4885.0213.6829-.0958.1016-.2235.1529-.3531.1529z"/><path d="m5.70975 20.808c-.12866 0-.25732-.0513-.35309-.1529-.18283-.1944-.17316-.5011.02128-.6829l5.56816-5.2219c.1954-.1819.5021-.1741.6839.0213.1829.1944.1732.5011-.0212.683l-5.56821 5.2218c-.09287.088-.21185.1316-.33084.1316z"/><path d="m27.5818 25.6632h-25.16314c-1.33303 0-2.41841586-1.0844-2.41841586-2.4184v-16.49069c0-1.334 1.08538586-2.41842 2.41841586-2.41842h25.16314c1.3331 0 2.4184 1.08442 2.4184 2.41842v16.49069c0 1.334-1.0853 2.4184-2.4184 2.4184zm-25.16314-20.36014c-.80001 0-1.451048.65104-1.451048 1.45105v16.49069c0 .8.651038 1.4511 1.451048 1.4511h25.16314c.8 0 1.4511-.6511 1.4511-1.4511v-16.49069c0-.80001-.6511-1.45105-1.4511-1.45105z"/><path d="m15.001 17.4301c-.6433 0-1.2866-.2138-1.7761-.6404l-12.420972-10.83551c-.201212-.1751-.222494-.48079-.047401-.68297.177029-.20121.481753-.21959.682963-.04643l12.42101 10.83451c.6181.5388 1.6629.5388 2.2801 0l12.4055-10.8171c.2002-.17509.505-.15574.683.04644.1751.20218.1547.5069-.0465.68296l-12.4055 10.8171c-.4905.4276-1.1328.6414-1.7761.6414z"/></g></svg>

<svg width="30" height="30" viewBox="0 0 30 30" fill="none" xmlns="http://www.w3.org/2000/svg">
<g clip-path="url(#clip0)">
<path d="M24.2899 20.808C24.1709 20.808 24.0519 20.7644 23.9591 20.6764L18.3928 15.4546C18.1984 15.2727 18.1887 14.966 18.3716 14.7716C18.5544 14.5752 18.8591 14.5665 19.0555 14.7503L24.6217 19.9722C24.8161 20.154 24.8258 20.4607 24.643 20.6551C24.5472 20.7567 24.4195 20.808 24.2899 20.808Z" fill="white"/>
<path d="M5.70975 20.808C5.58109 20.808 5.45243 20.7567 5.35666 20.6551C5.17383 20.4607 5.1835 20.154 5.37794 19.9722L10.9461 14.7503C11.1415 14.5684 11.4482 14.5762 11.63 14.7716C11.8129 14.966 11.8032 15.2727 11.6088 15.4546L6.04059 20.6764C5.94772 20.7644 5.82874 20.808 5.70975 20.808Z" fill="white"/>
<path d="M27.5818 25.6632H2.41866C1.08563 25.6632 0.000244141 24.5788 0.000244141 23.2448V6.75411C0.000244141 5.42011 1.08563 4.33569 2.41866 4.33569H27.5818C28.9149 4.33569 30.0002 5.42011 30.0002 6.75411V23.2448C30.0002 24.5788 28.9149 25.6632 27.5818 25.6632ZM2.41866 5.30306C1.61865 5.30306 0.967612 5.9541 0.967612 6.75411V23.2448C0.967612 24.0448 1.61865 24.6959 2.41866 24.6959H27.5818C28.3818 24.6959 29.0329 24.0448 29.0329 23.2448V6.75411C29.0329 5.9541 28.3818 5.30306 27.5818 5.30306H2.41866Z" fill="white"/>
<path d="M15.001 17.4301C14.3577 17.4301 13.7144 17.2163 13.2249 16.7897L0.803928 5.95419C0.602716 5.77909 0.581434 5.4734 0.756527 5.27122C0.933556 5.07001 1.23828 5.05163 1.43949 5.22479L13.8605 16.0593C14.4786 16.5981 15.5234 16.5981 16.1406 16.0593L28.5461 5.2422C28.7463 5.06711 29.0511 5.08646 29.2291 5.28864C29.4042 5.49082 29.3838 5.79554 29.1826 5.9716L16.7771 16.7887C16.2866 17.2163 15.6443 17.4301 15.001 17.4301Z" fill="white"/>
</g>
<defs>
<clipPath id="clip0">
<rect width="30" height="30" fill="white" transform="translate(0.000244141)"/>
</clipPath>
</defs>
</svg>
